X: 23359
T: Leitrim Flute
R: jig
M: 6/8
K: Aminor
|:Bee gee|Bee G2A|Bee ged|eAA A2A|
Bee gee|Bee G2A|BAB GED|EAA A2A:|
|:dgg ged|eaa ged|deg ged|eAA A2A|
dgg ged|eaa ged|BAB GED|EAA A2A:|

